X: 15724
T: Golden Stud, The
R: reel
M: 4/4
K: Bminor
BcdB cdec|defd efge|fedf edcA|(3Bcdce dcBA
BcdB cdec|defd efge|fedf edcA|(3Bcdec dBB:|
~g3f gfeg|~f3e fedf|~e3d edce|dBcA Bcdf
~g3f gfeg|~f3e fedf|~e3d edce|dBcA ~B3A:|

